X:1

T:Whish, The

M:6/8

L:1/8

S:Sharp – Country Dance Tunes  (1909)

Z:AK/Fiddler’s Companion

K:G

d | B>cd A2G | G2g g2g | f>ge d>ef | g2G B>AG | A3e3 | dB2 A2G | (G3 G2) :|

 

WHISH, CAT FROM UNDER THE TABLE. AKA and see “Drive the cat from under the table,” "Huish the cat," "Huis/Uis an cat," "Hunt the Cat," "Wollop the Cat," "Jackson's Humours of Panteen." Irish, Double Jig. C Major. Standard tuning. AB (Bunting): AABB (Kerr, O'Neill). The Irish collector Edward Bunting noted the tune from harper Charles Byrne in 1802, along with two opening lines:

***

Whish, cat, from under the table,

And you shall have milk while ever I'm able.

***

O'Neill's "Huish the cat" is nearly note-for-note the same as the version given by Bunting and is likely taken from him. "Whish" is one of a family of tunes, claims Breandan Breathnach in Coel Rinnce na hEireann, which includes the jigs "Bimid Ag Ol [1]," "Last Night's Fun [2]," and others. The air "Katty Quin" is a close variant, reports O'Sullivan (1983), as is "Jackson's Humours of Panteen," ascribed to the 18th century piper Walker Jackson. Breathnach (1976) felt "Bill Harte's Jig [1]," "Did you see my man looking for me? [2]" and "Dance light, for my heart lies under your feet” were related tunes. Finally, O'Sullivan notes there are motivic connections with a reel, "Gilibeart Mhac Fhlannchadha," in Breathnach's collection (CRE I, No. 83). Kerr (Merry Melodies), Vol. 2; No. 231, pg. 26. O'Neill (Music of Ireland: 1850 Melodies), 1903/1979; No. 909, pg. 169. O'Neill (Dance Music of Ireland: 1001 Gems), 1907/1986; No. 382, pg. 77 (appears as "Huish the Cat"). O'Sullivan/Bunting, 1983; No. 4, pgs. 6-7. Tara Records 4008, “Josephine Marsh” (1996. Appears as “Wallop the Cat from Under the Table”).

